X: 1
T: Lys i M\/orketida
T: Light in the Darkness
C: James Gray
B: Alex & James Gray "Tweeddale Collection" v.4 #5 p.30-31
R: waltz
Z: 2017 John Chambers <jc:trillian.mit.edu>
M: 3/4
L: 1/8
K: D
A2 |\
"D"d3 a gf | "A"{gf}e2 c2 A2 | "G"B3 G Bd | "A"{d}cB A2E2 |\
"D"F3 D dc | "G"{dc}B2 G2 ed | "A"cd e2 d2 | c4 A2 |
"D"d3 a gf | "A"{gf}e2 c2 A2 | "G"B3 G Bd | "A"{d}cB A2E2 |\
"Bm"F3 D dc | "Em"{dc}B3 G gf | "A"{gf}ed c2 e2 | "D"d4 :|
|: DC |\
"G"B,3 D GD | "A"{CE}C2 A,2 DC | "G"B,3 D GD | "A"CD E2 G2 |\
"D"{G}F3 A dc | "G"{dc}B4 gf | "A"{gf}e4 cB | Aa ec ae |
"D"{e}d3 a gf | "A"{gf}e2 c2 A2 | "G"B3 G Bd | "A"{d}cB A2E2 |\
"Bm"FD FB ba | "Em"{a}gf e2 d2 | "A"cA ag e2 |1 "D"d4 :|2 "D"[d4F4] |]
